X:513
T:La Quinte Estampie Real
Z:Jack Campin, http://www.campin.me.uk/
F:Jack Campin's Nine-Note Tunebook
% last edit 03-02-2013
M:6/8
L:1/8
K:DMin
F| FEF G/F/GA   |GFE/D/       C2F   |
[1 FED E/D/E/F/G|F3           F2   :|\
[2 FED E/D/E/D/C|D3           D3   ||
%
   A2D A2G      |B/A/G/A/F/G/ F2z   |\
   c2B A2G      |F/E/FG       A2F   |
[1 FED E/D/E/F/G|F3           F3   :|\
[2 FED E/D/E/D/C|D3           D3   ||
%
   GEF G2F/E/   |F/E/FG       A2z   |[M:9/8] A2d          GAG F2F|
[M:6/8]\
[1 FED E/D/E/F/G|F3           F3   :|\
[2 FED E/D/E/D/C|D3           D3   ||
%
   C2D F2G       |A2z         c/B/cF|        c/B/c/d/c/B/ A2F|
[1 FED E/D/E/F/G |F3          F3   :|\
[2 FED E/D/E/D/C |D3          D3   |]

